!!!COM: Gabriel Faure/
!!!CNT: Francais
!!!TXO: Francais
!!!OTL: "Spleen"
!!!LYR: Verlaine
!!!OPR: 
!!!OPS: Op. 51
!!!ONM: No. 3
!!!ENC: Emily Thomas
!!!YOR: CD Sheet Music French Art Songs, The Ultimate Collection
!!!YOR: CD Sheet Music, LLC 2003
!!!ODT: 1888/
!!NB: Vocal melody and text encoded.
**kern	**silbe
=1	=1
*clefG2	*
*k[b-]	*
*M3/4	*
*MM[Andante quasi Allegretto]	*
2.r	.
=2	=2
2.r	.
=3	=3
2.r	.
=4	=4
4r	.
4r	.
{4a	{Il
=5	=5
4.dd	pleu-
8dd	-re
8cc	dans
8cc	mon
=6	=6
2b-	coeur
8a	comme
8a	il
=7	=7
2f	pleut
8g	sur
8g	la
=8	=8
2a	vil-
[4a	-le.
=9	=9
4a]}	|}
4r	.
{4a	{quelle
=10	=10
4cc	est
4cc	cet-
8bn	-te
8bn	lan-
=11	=11
2ee	-gueur
8cc	qui
8cc	pe/-
=12	=12
4.a	-ne\-
8bn	-tre
4g	mon
=13	=13
[2.e	coeur?
=14	=14
4e]}	|}
4r	.
4r	.
=15	=15
4r	.
4r	.
{8f	{O
8f	bruit
=16	=16
2f	doux
8f	de
8f	la
=17	=17
4.f	pluie
8f	Par
8g	terre
8a	et
=18	=18
8bn	sur
8a	les
[2a	toits!
=19	=19
4a]}	|}
4r	.
4r	.
=20	=20
4r	.
4r	.
{8b-	{Pour
8b-	un
=21	=21
2b-	coeur
8b-	qui
8b-	s'en-
=22	=22
2b-	nui-
4b-}	-e}
=23	=23
4r	.
4r	.
{8a	{O
8a	le
=24	=24
2b-	chant
8b-	de
8b-	la
=25	=25
2a	plui-
4a}	-e!}
=26	=26
4r	.
4r	.
{4b-	{Il
=27	=27
8dd-	pleu-
8dd-	-re
8cc	sans
8cc	rai-
4b-	-son
=28	=28
8a-	Dans
8a-	mon
4g	coeur
8f	qui
8f	se/-
=29	=29
2.e	-coeu-
=30	=30
2.f}	-re.}
=31	=31
2.r	.
=32	=32
{2a	{Quoi!
4r	.
=33	=33
4.g	nul-
8g	-le
8bn	tra-
8bn	-hi-
=32	=32
2ee}	-son?}
{4cc	{mon
=33	=33
4.a	deuil
8bn	est
8g	sans
8f	rai-
=34	=34
[2.e	-son.
=35	=35
4e]}	|}
4r	.
4r	.
=36	=36
4r	.
4r	.
{4f	{C'est
=37	=37
4.e	bien
8e	la
8f	pi-
8f	-re
=38	=38
2g	pei-
4a}	-ne}
=39	=39
8r	.
{8b-	de
8b-	ne
8b-	sa-
8cc	-voir
8cc	pour-
=40	=40
2dd}	-quio...}
{8a	{Sans
8a	a-
=41	=41
2dd	-mour
8cc	et
8cc	sans
=42	=42
2b-	hai-
4a	|
=43	=43
2.g#}	-ne.}
=44	=44
4r	.
4r	.
{4g#	{mon
=45	=45
4.a	coeur
8gn	a
8f	tant
8e	de
=46	=46
2e	pei-
4d}	-ne!}
==	==
*-	*-
